raws/icons/decors/filters-icon.svg

<svg width="20" height="21" viewBox="0 0 20 21" fill="none" xmlns="http://www.w3.org/2000/svg">
<g clip-path="url(#clip0_35_6479)">
<path d="M4.95856 5.3419C4.52465 5.3419 4.15774 5.49504 3.85783 5.80133C3.55792 6.10762 3.40797 6.47772 3.40797 6.91163C3.40797 7.34554 3.55792 7.71565 3.85783 8.02194C4.15774 8.32823 4.52465 8.48137 4.95856 8.48137C5.39247 8.48137 5.76257 8.32823 6.06886 8.02194C6.37515 7.71565 6.5283 7.34554 6.5283 6.91163C6.5283 6.47772 6.37515 6.10762 6.06886 5.80133C5.76257 5.49504 5.39247 5.3419 4.95856 5.3419ZM2.24023 6.29905C2.38062 5.67371 2.70286 5.15366 3.20696 4.73889C3.71107 4.32412 4.29493 4.11674 4.95856 4.11674C5.73705 4.11674 6.39748 4.39112 6.93987 4.93989C7.48226 5.48866 7.75346 6.14591 7.75346 6.91163C7.75346 7.69012 7.48226 8.35056 6.93987 8.89295C6.39748 9.43534 5.73705 9.70653 4.95856 9.70653C4.29493 9.70653 3.71107 9.49915 3.20696 9.08438C2.70286 8.66961 2.38062 8.14956 2.24023 7.52421H0.613068C0.447161 7.52421 0.303588 7.46678 0.182348 7.35193C0.0611082 7.23707 0.000488281 7.0903 0.000488281 6.91163C0.000488281 6.74573 0.0611082 6.60215 0.182348 6.48091C0.303588 6.35967 0.447161 6.29905 0.613068 6.29905H2.24023ZM8.71061 6.91163C8.71061 6.74573 8.77123 6.60215 8.89247 6.48091C9.01371 6.35967 9.15729 6.29905 9.32319 6.29905H15.851C16.0169 6.29905 16.1605 6.35967 16.2817 6.48091C16.403 6.60215 16.4636 6.74573 16.4636 6.91163C16.4636 7.07754 16.403 7.22111 16.2817 7.34235C16.1605 7.46359 16.0169 7.52421 15.851 7.52421H9.32319C9.15729 7.52421 9.01371 7.46359 8.89247 7.34235C8.77123 7.22111 8.71061 7.07754 8.71061 6.91163ZM11.5055 12.1569C11.0716 12.1569 10.7015 12.31 10.3952 12.6163C10.0889 12.9226 9.93577 13.2927 9.93577 13.7266C9.93577 14.1605 10.0889 14.5306 10.3952 14.8369C10.7015 15.1432 11.0716 15.2963 11.5055 15.2963C11.9394 15.2963 12.3063 15.1432 12.6062 14.8369C12.9061 14.5306 13.0561 14.1605 13.0561 13.7266C13.0561 13.2927 12.9061 12.9226 12.6062 12.6163C12.3063 12.31 11.9394 12.1569 11.5055 12.1569ZM8.71061 13.7266C8.71061 12.9481 8.98181 12.2877 9.5242 11.7453C10.0666 11.2029 10.727 10.9317 11.5055 10.9317C12.1691 10.9317 12.753 11.1391 13.2571 11.5538C13.7612 11.9686 14.0835 12.4887 14.2238 13.114H15.851C16.0169 13.114 16.1605 13.1714 16.2817 13.2863C16.403 13.4012 16.4636 13.5479 16.4636 13.7266C16.4636 13.8925 16.403 14.0361 16.2817 14.1573C16.1605 14.2785 16.0169 14.3392 15.851 14.3392H14.2238C14.0835 14.9645 13.7612 15.4846 13.2571 15.8993C12.753 16.3141 12.1691 16.5215 11.5055 16.5215C10.727 16.5215 10.0666 16.2471 9.5242 15.6983C8.98181 15.1496 8.71061 14.4923 8.71061 13.7266ZM0.000488281 13.7266C0.000488281 13.5479 0.0611082 13.4012 0.182348 13.2863C0.303588 13.1714 0.447161 13.114 0.613068 13.114H7.14088C7.30678 13.114 7.45036 13.1714 7.5716 13.2863C7.69284 13.4012 7.75346 13.5479 7.75346 13.7266C7.75346 13.8925 7.69284 14.0361 7.5716 14.1573C7.45036 14.2785 7.30678 14.3392 7.14088 14.3392H0.613068C0.447161 14.3392 0.303588 14.2785 0.182348 14.1573C0.0611082 14.0361 0.000488281 13.8925 0.000488281 13.7266Z" fill="black"/>
</g>
<defs>
<clipPath id="clip0_35_6479">
<rect width="19.6026" height="19.6026" fill="white" transform="matrix(1 0 0 -1 0.000488281 20.1855)"/>
</clipPath>
</defs>
</svg>

<svg width="20" height="21" fill="none" xmlns="http://www.w3.org/2000/svg"><g clip-path="url(#clip0_35_6479)"><path d="M4.959 5.342c-.434 0-.801.153-1.101.46-.3.306-.45.676-.45 1.11 0 .434.15.804.45 1.11.3.306.667.46 1.1.46.434 0 .805-.154 1.11-.46.307-.306.46-.676.46-1.11 0-.434-.153-.804-.46-1.11a1.513 1.513 0 00-1.11-.46zm-2.719.957c.14-.625.463-1.145.967-1.56a2.676 2.676 0 011.752-.622 2.68 2.68 0 011.98.823c.543.549.814 1.206.814 1.972 0 .778-.27 1.439-.813 1.981a2.696 2.696 0 01-1.981.814 2.676 2.676 0 01-1.752-.623 2.752 2.752 0 01-.967-1.56H.613A.605.605 0 010 6.912c0-.166.061-.31.182-.431a.589.589 0 01.431-.182H2.24zm6.47.613c0-.166.061-.31.182-.431a.589.589 0 01.431-.182h6.528c.166 0 .31.06.43.182a.589.589 0 01.183.43c0 .167-.061.31-.182.431a.589.589 0 01-.431.182H9.323a.589.589 0 01-.43-.182.589.589 0 01-.182-.43zm2.795 5.245c-.433 0-.804.153-1.11.46-.306.306-.46.676-.46 1.11 0 .434.154.804.46 1.11.306.306.677.46 1.11.46.434 0 .801-.154 1.101-.46.3-.306.45-.676.45-1.11 0-.434-.15-.804-.45-1.11-.3-.307-.667-.46-1.1-.46zm-2.794 1.57c0-.779.27-1.44.813-1.982a2.696 2.696 0 011.982-.813c.663 0 1.247.207 1.751.622.504.415.827.935.967 1.56h1.627a.605.605 0 01.613.613c0 .165-.061.31-.182.43a.589.589 0 01-.431.182h-1.627a2.751 2.751 0 01-.967 1.56 2.676 2.676 0 01-1.752.623 2.68 2.68 0 01-1.98-.824 2.706 2.706 0 01-.814-1.971zm-8.71 0a.605.605 0 01.613-.613H7.14a.605.605 0 01.612.613c0 .165-.06.31-.181.43a.589.589 0 01-.431.182H.613a.589.589 0 01-.43-.182.589.589 0 01-.183-.43z" fill="#000"/></g><defs><clipPath id="clip0_35_6479"><path fill="#fff" transform="matrix(1 0 0 -1 0 20.186)" d="M0 0h19.603v19.603H0z"/></clipPath></defs></svg>
